; generated by PrusaSlicer 2.3.3+win64 on 2021-08-07 at 11:23:14 UTC


;
;

;
;
; 

; external perimeters extrusion width = 0.45mm
; perimeters extrusion width = 0.45mm
; infill extrusion width = 0.45mm
; solid infill extrusion width = 0.45mm
; top infill extrusion width = 0.40mm
; first layer extrusion width = 0.42mm

M73 P0 R197
M201 X1250 Y1250 Z400 E5000 ; sets maximum accelerations, mm/sec^2
M203 X180 Y180 Z12 E80 ; sets maximum feedrates, mm/sec
M204 P1250 R1250 T1250 ; sets acceleration (P, T) and retract acceleration (R), mm/sec^2
M205 X8.00 Y8.00 Z2.00 E10.00 ; sets the jerk limits, mm/sec
M205 S0 T0 ; sets the minimum extruding and travel feed rate, mm/sec
M107
;TYPE:Custom
G90 ; use absolute coordinates
M83 ; extruder relative mode
M104 S170 ; set extruder temp for bed leveling
M140 S70 ; set bed temp
M109 R170 ; wait for bed leveling temp
M190 S70 ; wait for bed temp
G28 ; home all without mesh bed level
G29 ; mesh bed leveling 
M104 S230 ; set extruder temp
G92 E0.0
G1 Y-2.0 X179 F2400
G1 Z3 F720
M109 S230 ; wait for extruder temp

; intro line
G1 X170 F1000
G1 Z0.2 F720
G1 X110.0 E8.0 F900
G1 X40.0 E10.0 F700
G92 E0.0

M221 S95 ; set flow
G21 ; set units to millimeters
G90 ; use absolute coordinates
M83 ; use relative distances for extrusion
M900 K0.2 ; Filament gcode LA 1.5
; ; Filament gcode LA 1.0
;LAYER_CHANGE
;Z:0.2
;HEIGHT:0.2
;BEFORE_LAYER_CHANGE
G92 E0.0
;0.2


G1 E-3.20000 F4200.000
G1 Z0.200 F9000.000
;AFTER_LAYER_CHANGE
;0.2
G1 Z0.400
G1 X28.410 Y54.900
G1 Z0.200
G1 E3.20000 F2400.000
M204 S800
;TYPE:Skirt
;WIDTH:0.42
G1 F600.000
G1 X29.396 Y54.164 E0.03856
G1 X30.286 Y53.797 E0.03020
G1 X31.477 Y53.624 E0.03772
G1 X148.504 Y53.623 E3.66930
G1 X149.241 Y53.686 E0.02320
G1 X150.024 Y53.900 E0.02545
G1 X150.953 Y54.377 E0.03275
G1 X151.582 Y54.891 E0.02546
G1 X152.065 Y55.461 E0.02344
G1 X152.469 Y56.161 E0.02533
G1 X152.792 Y57.155 E0.03275
G1 X152.876 Y57.931 E0.02450
G1 X152.876 Y122.080 E2.01133
G1 X152.696 Y123.243 E0.03690
G1 X152.317 Y124.137 E0.03044
G1 X151.590 Y125.100 E0.03784
G1 X150.604 Y125.836 E0.03856
G1 X149.722 Y126.200 E0.02994
G1 X148.511 Y126.377 E0.03834
G1 X31.466 Y126.377 E3.66989
G1 X30.275 Y126.200 E0.03773
G1 X29.373 Y125.823 E0.03068
G1 X28.400 Y125.090 E0.03820
G1 X27.664 Y124.104 E0.03856
G1 X27.297 Y123.214 E0.03020
G1 X27.123 Y122.019 E0.03785
G1 X27.124 Y57.943 E2.00906
M73 P0 R196
G1 X27.302 Y56.764 E0.03738
G1 X27.681 Y55.866 E0.03056
G1 X28.374 Y54.947 E0.03608
M204 S1250
; printing object lid.stl id:0 copy 0
G1 E-2.24000 F4200.000
;WIPE_START
G1 F7200.000
G1 X29.396 Y54.164 E-0.71353
G1 X29.727 Y54.027 E-0.19847
;WIPE_END
G1 E-0.04800 F4200.000
G1 Z0.400 F9000.000
G1 X30.695 Y122.900
G1 Z0.200
G1 E3.20000 F2400.000
M204 S800
;TYPE:Perimeter
G1 F600.000
G1 X149.305 Y122.900 E3.71890
G1 X149.199 Y122.987 E0.00428
G1 X30.801 Y122.987 E3.71230
G1 X30.741 Y122.939 E0.00240
M204 S1250
G1 X30.002 Y122.523 F9000.000
M204 S800
;TYPE:External perimeter
G1 F600.000
G1 X149.998 Y122.523 E3.76238
G1 X149.916 Y122.721 E0.00674
G1 X149.785 Y122.934 E0.00782
G1 X149.623 Y123.123 E0.00782
G1 X149.434 Y123.285 E0.00782
G1 X149.306 Y123.364 E0.00472
G1 X30.694 Y123.364 E3.71897
G1 X30.566 Y123.285 E0.00472
G1 X30.377 Y123.123 E0.00782
G1 X30.215 Y122.934 E0.00782
G1 X30.084 Y122.721 E0.00782
G1 X30.025 Y122.578 E0.00486
M204 S1250
G1 X30.376 Y122.665 F9000.000
G1 E-2.24000 F4200.000
;WIPE_START
G1 F7200.000
G1 X31.671 Y122.577 E-0.91200
;WIPE_END
G1 E-0.04800 F4200.000
G1 Z0.400 F9000.000
G1 X30.287 Y119.987
G1 Z0.200
G1 E3.20000 F2400.000
M204 S800
;TYPE:Perimeter
G1 F600.000
G1 X30.287 Y119.900 E0.00273
G1 X149.713 Y119.900 E3.74451
M73 P0 R195
G1 X149.713 Y119.987 E0.00273
G1 X30.347 Y119.987 E3.74263
M204 S1250
M73 P1 R195
G1 X29.910 Y120.364 F9000.000
M204 S800
;TYPE:External perimeter
G1 F600.000
G1 X29.910 Y119.523 E0.02637
G1 X150.090 Y119.523 E3.76816
G1 X150.090 Y120.364 E0.02637
G1 X29.970 Y120.364 E3.76628
M204 S1250
G1 X30.109 Y120.017 F9000.000
G1 E-2.24000 F4200.000
;WIPE_START
G1 F7200.000
G1 X29.910 Y119.523 E-0.46730
G1 X30.712 Y119.523 E-0.44470
;WIPE_END
G1 E-0.04800 F4200.000
G1 Z0.400 F9000.000
G1 X30.287 Y116.987
G1 Z0.200
G1 E3.20000 F2400.000
M204 S800
;TYPE:Perimeter
G1 F600.000
G1 X30.287 Y116.900 E0.00273
G1 X149.713 Y116.900 E3.74451
G1 X149.713 Y116.987 E0.00273
G1 X30.347 Y116.987 E3.74263
M204 S1250
M73 P1 R194
G1 X29.910 Y117.364 F9000.000
M204 S800
;TYPE:External perimeter
G1 F600.000
G1 X29.910 Y116.523 E0.02637
G1 X150.090 Y116.523 E3.76816
G1 X150.090 Y117.364 E0.02637
G1 X29.970 Y117.364 E3.76628
M204 S1250
G1 X30.109 Y117.017 F9000.000
G1 E-2.24000 F4200.000
;WIPE_START
G1 F7200.000
G1 X29.910 Y116.523 E-0.46730
G1 X30.712 Y116.523 E-0.44470
;WIPE_END
G1 E-0.04800 F4200.000
G1 Z0.400 F9000.000
G1 X30.287 Y113.987
G1 Z0.200
G1 E3.20000 F2400.000
M204 S800
;TYPE:Perimeter
G1 F600.000
G1 X30.287 Y113.900 E0.00273
G1 X149.713 Y113.900 E3.74451
G1 X149.713 Y113.987 E0.00273
G1 X30.347 Y113.987 E3.74263
M204 S1250
G1 X29.910 Y114.364 F9000.000
M204 S800
;TYPE:External perimeter
G1 F600.000
G1 X29.910 Y113.523 E0.02637
G1 X150.090 Y113.523 E3.76816
M73 P2 R193
G1 X150.090 Y114.364 E0.02637
G1 X29.970 Y114.364 E3.76628
M204 S1250
G1 X30.109 Y114.017 F9000.000
G1 E-2.24000 F4200.000
;WIPE_START
G1 F7200.000
G1 X29.910 Y113.523 E-0.46730
G1 X30.712 Y113.523 E-0.44470
;WIPE_END
G1 E-0.04800 F4200.000
G1 Z0.400 F9000.000
G1 X30.287 Y110.987
G1 Z0.200
G1 E3.20000 F2400.000
M204 S800
;TYPE:Perimeter
G1 F600.000
G1 X30.287 Y110.900 E0.00273
G1 X149.713 Y110.900 E3.74451
G1 X149.713 Y110.987 E0.00273
G1 X30.347 Y110.987 E3.74263
M204 S1250
G1 X29.910 Y111.364 F9000.000
M204 S800
;TYPE:External perimeter
G1 F600.000
G1 X29.910 Y110.523 E0.02637
G1 X150.090 Y110.523 E3.76816
G1 X150.090 Y111.364 E0.02637
G1 X29.970 Y111.364 E3.76628
M204 S1250
M73 P2 R192
G1 X30.109 Y111.017 F9000.000
G1 E-2.24000 F4200.000
;WIPE_START
G1 F7200.000
G1 X29.910 Y110.523 E-0.46730
G1 X30.712 Y110.523 E-0.44470
;WIPE_END
G1 E-0.04800 F4200.000
G1 Z0.400 F9000.000
G1 X30.287 Y107.987
G1 Z0.200
G1 E3.20000 F2400.000
M204 S800
;TYPE:Perimeter
G1 F600.000
G1 X30.287 Y107.900 E0.00273
G1 X149.713 Y107.900 E3.74451
G1 X149.713 Y107.987 E0.00273
G1 X30.347 Y107.987 E3.74263
M204 S1250
G1 X29.910 Y108.364 F9000.000
M204 S800
;TYPE:External perimeter
G1 F600.000
G1 X29.910 Y107.523 E0.02637
G1 X150.090 Y107.523 E3.76816
G1 X150.090 Y108.364 E0.02637
G1 X29.970 Y108.364 E3.76628
M204 S1250
G1 X30.109 Y108.017 F9000.000
G1 E-2.24000 F4200.000
;WIPE_START
G1 F7200.000
G1 X29.910 Y107.523 E-0.46730
G1 X30.712 Y107.523 E-0.44470
;WIPE_END
G1 E-0.04800 F4200.000
G1 Z0.400 F9000.000
G1 X30.287 Y104.987
G1 Z0.200
G1 E3.20000 F2400.000
M204 S800
;TYPE:Perimeter
G1 F600.000
G1 X30.287 Y104.900 E0.00273
G1 X149.713 Y104.900 E3.74451
M73 P3 R191
G1 X149.713 Y104.987 E0.00273
G1 X30.347 Y104.987 E3.74263
M204 S1250
G1 X29.910 Y105.364 F9000.000
M204 S800
;TYPE:External perimeter
G1 F600.000
G1 X29.910 Y104.523 E0.02637
G1 X150.090 Y104.523 E3.76816
G1 X150.090 Y105.364 E0.02637
G1 X29.970 Y105.364 E3.76628
M204 S1250
G1 X30.109 Y105.017 F9000.000
G1 E-2.24000 F4200.000
;WIPE_START
G1 F7200.000
G1 X29.910 Y104.523 E-0.46730
G1 X30.712 Y104.523 E-0.44470
;WIPE_END
G1 E-0.04800 F4200.000
G1 Z0.400 F9000.000
G1 X30.287 Y101.987
G1 Z0.200
G1 E3.20000 F2400.000
M204 S800
;TYPE:Perimeter
G1 F600.000
G1 X30.287 Y101.900 E0.00273
G1 X149.713 Y101.900 E3.74451
G1 X149.713 Y101.987 E0.00273
G1 X30.347 Y101.987 E3.74263
M204 S1250
M73 P3 R190
G1 X29.910 Y102.364 F9000.000
M204 S800
;TYPE:External perimeter
G1 F600.000
G1 X29.910 Y101.523 E0.02637
G1 X150.090 Y101.523 E3.76816
G1 X150.090 Y102.364 E0.02637
G1 X29.970 Y102.364 E3.76628
M204 S1250
G1 X30.109 Y102.017 F9000.000
G1 E-2.24000 F4200.000
;WIPE_START
G1 F7200.000
G1 X29.910 Y101.523 E-0.46730
G1 X30.712 Y101.523 E-0.44470
;WIPE_END
G1 E-0.04800 F4200.000
G1 Z0.400 F9000.000
G1 X30.287 Y98.987
G1 Z0.200
G1 E3.20000 F2400.000
M204 S800
;TYPE:Perimeter
G1 F600.000
G1 X30.287 Y98.900 E0.00273
G1 X149.713 Y98.900 E3.74451
G1 X149.713 Y98.987 E0.00273
G1 X30.347 Y98.987 E3.74263
M204 S1250
G1 X29.910 Y99.364 F9000.000
M204 S800
;TYPE:External perimeter
G1 F600.000
G1 X29.910 Y98.523 E0.02637
G1 X150.090 Y98.523 E3.76816
M73 P4 R189
G1 X150.090 Y99.364 E0.02637
G1 X29.970 Y99.364 E3.76628
M204 S1250
G1 X30.109 Y99.017 F9000.000
G1 E-2.24000 F4200.000
;WIPE_START
G1 F7200.000
G1 X29.910 Y98.523 E-0.46730
G1 X30.712 Y98.523 E-0.44470
;WIPE_END
G1 E-0.04800 F4200.000
G1 Z0.400 F9000.000
G1 X30.287 Y95.987
G1 Z0.200
G1 E3.20000 F2400.000
M204 S800
;TYPE:Perimeter
G1 F600.000
G1 X30.287 Y95.900 E0.00273
G1 X149.713 Y95.900 E3.74451
G1 X149.713 Y95.987 E0.00273
G1 X30.347 Y95.987 E3.74263
M204 S1250
G1 X29.910 Y96.364 F9000.000
M204 S800
;TYPE:External perimeter
G1 F600.000
G1 X29.910 Y95.523 E0.02637
G1 X150.090 Y95.523 E3.76816
G1 X150.090 Y96.364 E0.02637
G1 X29.970 Y96.364 E3.76628
M204 S1250
M73 P4 R188
G1 X30.109 Y96.017 F9000.000
G1 E-2.24000 F4200.000
;WIPE_START
G1 F7200.000
G1 X29.910 Y95.523 E-0.46730
G1 X30.712 Y95.523 E-0.44470
;WIPE_END
G1 E-0.04800 F4200.000
G1 Z0.400 F9000.000
G1 X30.287 Y92.987
G1 Z0.200
G1 E3.20000 F2400.000
M204 S800
;TYPE:Perimeter
G1 F600.000
G1 X30.287 Y92.900 E0.00273
G1 X149.713 Y92.900 E3.74451
G1 X149.713 Y92.987 E0.00273
G1 X30.347 Y92.987 E3.74263
M204 S1250
G1 X29.910 Y93.364 F9000.000
M204 S800
;TYPE:External perimeter
G1 F600.000
G1 X29.910 Y92.523 E0.02637
G1 X150.090 Y92.523 E3.76816
G1 X150.090 Y93.364 E0.02637
G1 X29.970 Y93.364 E3.76628
M204 S1250
G1 X30.109 Y93.017 F9000.000
G1 E-2.24000 F4200.000
;WIPE_START
G1 F7200.000
G1 X29.910 Y92.523 E-0.46730
G1 X30.712 Y92.523 E-0.44470
;WIPE_END
G1 E-0.04800 F4200.000
G1 Z0.400 F9000.000
G1 X30.287 Y89.987
G1 Z0.200
G1 E3.20000 F2400.000
M204 S800
;TYPE:Perimeter
G1 F600.000
G1 X30.287 Y89.900 E0.00273
G1 X149.713 Y89.900 E3.74451
M73 P5 R187
G1 X149.713 Y89.987 E0.00273
G1 X30.347 Y89.987 E3.74263
M204 S1250
G1 X29.910 Y90.364 F9000.000
M204 S800
;TYPE:External perimeter
G1 F600.000
G1 X29.910 Y89.523 E0.02637
G1 X150.090 Y89.523 E3.76816
G1 X150.090 Y90.364 E0.02637
G1 X29.970 Y90.364 E3.76628
M204 S1250
G1 X30.109 Y90.017 F9000.000
G1 E-2.24000 F4200.000
;WIPE_START
G1 F7200.000
G1 X29.910 Y89.523 E-0.46730
G1 X30.712 Y89.523 E-0.44470
;WIPE_END
G1 E-0.04800 F4200.000
G1 Z0.400 F9000.000
G1 X30.287 Y86.987
G1 Z0.200
G1 E3.20000 F2400.000
M204 S800
;TYPE:Perimeter
G1 F600.000
G1 X30.287 Y86.900 E0.00273
G1 X149.713 Y86.900 E3.74451
G1 X149.713 Y86.987 E0.00273
G1 X30.347 Y86.987 E3.74263
M204 S1250
M73 P5 R186
G1 X29.910 Y87.364 F9000.000
M204 S800
;TYPE:External perimeter
G1 F600.000
G1 X29.910 Y86.523 E0.02637
G1 X150.090 Y86.523 E3.76816
G1 X150.090 Y87.364 E0.02637
G1 X29.970 Y87.364 E3.76628
M204 S1250
G1 X30.109 Y87.017 F9000.000
G1 E-2.24000 F4200.000
;WIPE_START
G1 F7200.000
G1 X29.910 Y86.523 E-0.46730
G1 X30.712 Y86.523 E-0.44470
;WIPE_END
G1 E-0.04800 F4200.000
G1 Z0.400 F9000.000
G1 X30.287 Y83.987
G1 Z0.200
G1 E3.20000 F2400.000
M204 S800
;TYPE:Perimeter
G1 F600.000
G1 X30.287 Y83.900 E0.00273
G1 X149.713 Y83.900 E3.74451
G1 X149.713 Y83.987 E0.00273
G1 X30.347 Y83.987 E3.74263
M204 S1250
M73 P6 R186
G1 X29.910 Y84.364 F9000.000
M204 S800
;TYPE:External perimeter
G1 F600.000
G1 X29.910 Y83.523 E0.02637
G1 X150.090 Y83.523 E3.76816
M73 P6 R185
G1 X150.090 Y84.364 E0.02637
G1 X29.970 Y84.364 E3.76628
M204 S1250
G1 X30.109 Y84.017 F9000.000
G1 E-2.24000 F4200.000
;WIPE_START
G1 F7200.000
G1 X29.910 Y83.523 E-0.46730
G1 X30.712 Y83.523 E-0.44470
;WIPE_END
G1 E-0.04800 F4200.000
G1 Z0.400 F9000.000
G1 X30.287 Y80.987
G1 Z0.200
G1 E3.20000 F2400.000
M204 S800
;TYPE:Perimeter
G1 F600.000
G1 X30.287 Y80.900 E0.00273
G1 X149.713 Y80.900 E3.74451
G1 X149.713 Y80.987 E0.00273
G1 X30.347 Y80.987 E3.74263
M204 S1250
G1 X29.910 Y81.364 F9000.000
M204 S800
;TYPE:External perimeter
G1 F600.000
G1 X29.910 Y80.523 E0.02637
G1 X150.090 Y80.523 E3.76816
G1 X150.090 Y81.364 E0.02637
G1 X29.970 Y81.364 E3.76628
M204 S1250
M73 P6 R184
G1 X30.109 Y81.017 F9000.000
G1 E-2.24000 F4200.000
;WIPE_START
G1 F7200.000
G1 X29.910 Y80.523 E-0.46730
G1 X30.712 Y80.523 E-0.44470
;WIPE_END
G1 E-0.04800 F4200.000
G1 Z0.400 F9000.000
G1 X30.287 Y77.987
G1 Z0.200
G1 E3.20000 F2400.000
M204 S800
;TYPE:Perimeter
G1 F600.000
G1 X30.287 Y77.900 E0.00273
G1 X149.713 Y77.900 E3.74451
G1 X149.713 Y77.987 E0.00273
G1 X30.347 Y77.987 E3.74263
M204 S1250
G1 X29.910 Y78.364 F9000.000
M204 S800
;TYPE:External perimeter
G1 F600.000
G1 X29.910 Y77.523 E0.02637
G1 X150.090 Y77.523 E3.76816
G1 X150.090 Y78.364 E0.02637
G1 X29.970 Y78.364 E3.76628
M204 S1250
M73 P7 R184
G1 X30.109 Y78.017 F9000.000
G1 E-2.24000 F4200.000
;WIPE_START
G1 F7200.000
G1 X29.910 Y77.523 E-0.46730
G1 X30.712 Y77.523 E-0.44470
;WIPE_END
G1 E-0.04800 F4200.000
G1 Z0.400 F9000.000
G1 X30.287 Y74.987
G1 Z0.200
G1 E3.20000 F2400.000
M204 S800
;TYPE:Perimeter
G1 F600.000
G1 X30.287 Y74.900 E0.00273
G1 X149.713 Y74.900 E3.74451
M73 P7 R183
G1 X149.713 Y74.987 E0.00273
G1 X30.347 Y74.987 E3.74263
M204 S1250
G1 X29.910 Y75.364 F9000.000
M204 S800
;TYPE:External perimeter
G1 F600.000
G1 X29.910 Y74.523 E0.02637
G1 X150.090 Y74.523 E3.76816
G1 X150.090 Y75.364 E0.02637
G1 X29.970 Y75.364 E3.76628
M204 S1250
G1 X30.109 Y75.017 F9000.000
G1 E-2.24000 F4200.000
;WIPE_START
G1 F7200.000
G1 X29.910 Y74.523 E-0.46730
G1 X30.712 Y74.523 E-0.44470
;WIPE_END
G1 E-0.04800 F4200.000
G1 Z0.400 F9000.000
G1 X30.287 Y71.987
G1 Z0.200
G1 E3.20000 F2400.000
M204 S800
;TYPE:Perimeter
G1 F600.000
G1 X30.287 Y71.900 E0.00273
G1 X149.713 Y71.900 E3.74451
G1 X149.713 Y71.987 E0.00273
G1 X30.347 Y71.987 E3.74263
M204 S1250
M73 P7 R182
G1 X29.910 Y72.364 F9000.000
M204 S800
;TYPE:External perimeter
G1 F600.000
G1 X29.910 Y71.523 E0.02637
G1 X150.090 Y71.523 E3.76816
G1 X150.090 Y72.364 E0.02637
G1 X29.970 Y72.364 E3.76628
M204 S1250
G1 X30.109 Y72.017 F9000.000
G1 E-2.24000 F4200.000
;WIPE_START
G1 F7200.000
G1 X29.910 Y71.523 E-0.46730
G1 X30.712 Y71.523 E-0.44470
;WIPE_END
G1 E-0.04800 F4200.000
G1 Z0.400 F9000.000
G1 X30.287 Y68.987
G1 Z0.200
G1 E3.20000 F2400.000
M204 S800
;TYPE:Perimeter
G1 F600.000
G1 X30.287 Y68.900 E0.00273
G1 X149.713 Y68.900 E3.74451
G1 X149.713 Y68.987 E0.00273
G1 X30.347 Y68.987 E3.74263
M204 S1250
M73 P8 R181
G1 X29.910 Y69.364 F9000.000
M204 S800
;TYPE:External perimeter
G1 F600.000
G1 X29.910 Y68.523 E0.02637
G1 X150.090 Y68.523 E3.76816
G1 X150.090 Y69.364 E0.02637
G1 X29.970 Y69.364 E3.76628
M204 S1250
G1 X30.109 Y69.017 F9000.000
G1 E-2.24000 F4200.000
;WIPE_START
G1 F7200.000
G1 X29.910 Y68.523 E-0.46730
G1 X30.712 Y68.523 E-0.44470
;WIPE_END
G1 E-0.04800 F4200.000
G1 Z0.400 F9000.000
G1 X30.287 Y65.987
G1 Z0.200
G1 E3.20000 F2400.000
M204 S800
;TYPE:Perimeter
G1 F600.000
G1 X30.287 Y65.900 E0.00273
G1 X149.713 Y65.900 E3.74451
G1 X149.713 Y65.987 E0.00273
G1 X30.347 Y65.987 E3.74263
M204 S1250
G1 X29.910 Y66.364 F9000.000
M204 S800
;TYPE:External perimeter
G1 F600.000
G1 X29.910 Y65.523 E0.02637
G1 X150.090 Y65.523 E3.76816
M73 P8 R180
G1 X150.090 Y66.364 E0.02637
G1 X29.970 Y66.364 E3.76628
M204 S1250
G1 X30.109 Y66.017 F9000.000
G1 E-2.24000 F4200.000
;WIPE_START
G1 F7200.000
G1 X29.910 Y65.523 E-0.46730
G1 X30.712 Y65.523 E-0.44470
;WIPE_END
G1 E-0.04800 F4200.000
G1 Z0.400 F9000.000
G1 X30.287 Y62.987
G1 Z0.200
G1 E3.20000 F2400.000
M204 S800
;TYPE:Perimeter
G1 F600.000
G1 X30.287 Y62.900 E0.00273
G1 X149.713 Y62.900 E3.74451
G1 X149.713 Y62.987 E0.00273
G1 X30.347 Y62.987 E3.74263
M204 S1250
G1 X29.910 Y63.364 F9000.000
M204 S800
;TYPE:External perimeter
G1 F600.000
G1 X29.910 Y62.523 E0.02637
G1 X150.090 Y62.523 E3.76816
G1 X150.090 Y63.364 E0.02637
G1 X29.970 Y63.364 E3.76628
M204 S1250
M73 P9 R179
G1 X30.109 Y63.017 F9000.000
G1 E-2.24000 F4200.000
;WIPE_START
G1 F7200.000
G1 X29.910 Y62.523 E-0.46730
G1 X30.712 Y62.523 E-0.44470
;WIPE_END
G1 E-0.04800 F4200.000
G1 Z0.400 F9000.000
G1 X30.287 Y59.987
G1 Z0.200
G1 E3.20000 F2400.000
M204 S800
;TYPE:Perimeter
G1 F600.000
