; generated by PrusaSlicer 2.3.3+win64 on 2021-08-13 at 19:50:31 UTC


;
;

;
;
; 

; external perimeters extrusion width = 0.45mm
; perimeters extrusion width = 0.45mm
; infill extrusion width = 0.45mm
; solid infill extrusion width = 0.45mm
; top infill extrusion width = 0.40mm
; support material extrusion width = 0.35mm
; first layer extrusion width = 0.42mm

M73 P0 R69
M201 X1250 Y1250 Z400 E5000 ; sets maximum accelerations, mm/sec^2
M203 X180 Y180 Z12 E80 ; sets maximum feedrates, mm/sec
M204 P1250 R1250 T1250 ; sets acceleration (P, T) and retract acceleration (R), mm/sec^2
M205 X8.00 Y8.00 Z2.00 E10.00 ; sets the jerk limits, mm/sec
M205 S0 T0 ; sets the minimum extruding and travel feed rate, mm/sec
M107
;TYPE:Custom
G90 ; use absolute coordinates
M83 ; extruder relative mode
M104 S170 ; set extruder temp for bed leveling
M140 S100 ; set bed temp
M109 R170 ; wait for bed leveling temp
M190 S100 ; wait for bed temp
G28 ; home all without mesh bed level
G29 ; mesh bed leveling 
M104 S255 ; set extruder temp
G92 E0.0
G1 Y-2.0 X179 F2400
M73 P0 R68
G1 Z3 F720
M109 S255 ; wait for extruder temp

; intro line
G1 X170 F1000
G1 Z0.2 F720
G1 X110.0 E8.0 F900
G1 X40.0 E10.0 F700
G92 E0.0

M221 S95 ; set flow
G21 ; set units to millimeters
G90 ; use absolute coordinates
M83 ; use relative distances for extrusion
M900 K0.2 ; Filament gcode
;LAYER_CHANGE
;Z:0.2
;HEIGHT:0.2
;BEFORE_LAYER_CHANGE
G92 E0.0
;0.2


G1 E-2.70000 F4200.000
G1 Z0.200 F9000.000
;AFTER_LAYER_CHANGE
;0.2
G1 Z0.400
G1 X154.181 Y22.269
G1 Z0.200
G1 E2.70000 F2400.000
M204 S800
;TYPE:Skirt
;WIDTH:0.42
G1 F1200.000
G1 X154.972 Y22.828 E0.03036
G1 X156.864 Y25.491 E0.10242
G1 X157.192 Y26.318 E0.02790
G1 X157.192 Y42.599 E0.51047
G1 X143.506 Y82.223 E1.31441
G1 X143.149 Y82.854 E0.02272
G1 X141.052 Y85.334 E0.10186
G1 X85.380 Y141.007 E2.46860
G1 X84.951 Y141.347 E0.01716
G1 X79.885 Y143.875 E0.17750
G1 X40.084 Y157.848 E1.32260
G1 X39.486 Y157.928 E0.01894
G1 X26.675 Y157.926 E0.40167
G1 X25.847 Y157.743 E0.02661
G1 X25.133 Y157.277 E0.02673
G1 X23.114 Y154.473 E0.10833
G1 X22.882 Y153.969 E0.01740
G1 X22.773 Y153.425 E0.01740
G1 X22.767 Y137.764 E0.49104
G1 X22.950 Y136.932 E0.02673
G1 X23.416 Y136.218 E0.02673
G1 X136.354 Y25.072 E4.96828
G1 X138.960 Y22.663 E0.11129
G1 X139.645 Y22.242 E0.02520
G1 X140.431 Y22.074 E0.02520
G1 X153.233 Y22.072 E0.40141
G1 X154.123 Y22.257 E0.02848
M204 S1250
; printing object RC_swoop.stl id:0 copy 0
G1 E-2.70000 F4200.000
G1 Z0.400 F9000.000
G1 X154.858 Y42.148
G1 Z0.200
G1 E2.70000 F2400.000
M204 S800
;TYPE:Support material
G1 F1200.000
G1 X154.858 Y26.767 E0.48228
G1 X154.104 Y26.767 E0.02365
G1 X154.104 Y41.978 E0.47696
G1 X153.349 Y41.978 E0.02365
G1 X153.349 Y26.767 E0.47696
G1 X153.233 Y26.767 E0.00364
G1 X153.233 Y24.449 E0.07267
G1 X152.595 Y24.449 E0.02001
G1 X152.595 Y41.978 E0.54963
G1 X151.841 Y41.978 E0.02365
M73 P1 R68
G1 X151.841 Y24.449 E0.54963
G1 X151.087 Y24.449 E0.02365
G1 X151.087 Y41.978 E0.54963
G1 X150.915 Y41.978 E0.00537
G1 X150.915 Y44.296 E0.07267
G1 X150.333 Y44.296 E0.01827
G1 X150.333 Y24.449 E0.62230
G1 X149.579 Y24.449 E0.02365
G1 X149.579 Y44.296 E0.62230
G1 X148.824 Y44.296 E0.02365
G1 X148.824 Y24.449 E0.62230
G1 X148.070 Y24.449 E0.02365
G1 X148.070 Y46.614 E0.69498
G1 X147.316 Y46.614 E0.02365
G1 X147.316 Y24.449 E0.69498
G1 X146.562 Y24.449 E0.02365
G1 X146.562 Y46.614 E0.69498
G1 X146.280 Y46.614 E0.00884
G1 X146.280 Y48.932 E0.07267
G1 X145.808 Y48.932 E0.01480
G1 X145.808 Y24.449 E0.76765
G1 X145.054 Y24.449 E0.02365
G1 X145.054 Y48.932 E0.76765
G1 X144.299 Y48.932 E0.02365
G1 X144.299 Y24.449 E0.76765
G1 X143.545 Y24.449 E0.02365
G1 X143.545 Y51.250 E0.84032
G1 X142.791 Y51.250 E0.02365
G1 X142.791 Y24.449 E0.84032
G1 X142.037 Y24.449 E0.02365
G1 X142.037 Y51.250 E0.84032
G1 X141.644 Y51.250 E0.01231
G1 X141.644 Y53.568 E0.07267
G1 X141.283 Y53.568 E0.01133
G1 X141.283 Y24.449 E0.91300
G1 X140.529 Y24.449 E0.02365
G1 X140.529 Y53.568 E0.91300
M73 P1 R67
G1 X139.774 Y53.568 E0.02365
G1 X139.774 Y26.767 E0.84032
G1 X139.020 Y26.767 E0.02365
G1 X139.020 Y55.885 E0.91300
G1 X138.266 Y55.885 E0.02365
G1 X138.266 Y26.767 E0.91300
G1 X138.021 Y26.767 E0.00767
G1 X138.021 Y31.402 E0.14535
G1 X137.512 Y31.402 E0.01597
G1 X137.512 Y55.885 E0.76765
G1 X137.009 Y55.885 E0.01578
G1 X137.009 Y59.216 E0.10443
G1 X137.512 Y59.216 E0.01578
G1 X137.512 Y83.699 E0.76765
G1 X138.266 Y83.699 E0.02365
G1 X138.266 Y59.216 E0.76765
G1 X139.020 Y59.216 E0.02365
G1 X139.020 Y83.699 E0.76765
G1 X139.326 Y83.699 E0.00960
G1 X139.326 Y81.381 E0.07267
G1 X139.774 Y81.381 E0.01405
G1 X139.774 Y63.852 E0.54963
G1 X140.529 Y63.852 E0.02365
G1 X140.529 Y81.381 E0.54963
G1 X141.283 Y81.381 E0.02365
G1 X141.283 Y63.682 E0.55495
M204 S1250
G1 E-2.70000 F4200.000
G1 Z0.400 F9000.000
G1 X131.425 Y60.012
G1 Z0.200
G1 E2.70000 F2400.000
M204 S800
;TYPE:Support material interface
;WIDTH:0.35
G1 F1200.000
G1 X131.425 Y54.068 E0.15175
G1 X131.302 Y54.257 E0.00576
G1 X130.907 Y54.646 E0.01415
G1 X130.907 Y59.869 E0.13335
G1 X130.389 Y59.869 E0.01322
G1 X130.389 Y55.155 E0.12036
G1 X129.871 Y55.664 E0.01854
G1 X129.871 Y59.869 E0.10736
G1 X129.403 Y59.869 E0.01196
G1 X129.403 Y62.186 E0.05918
G1 X129.353 Y62.186 E0.00126
G1 X129.353 Y56.173 E0.15355
G1 X128.836 Y56.682 E0.01854
G1 X128.836 Y62.186 E0.14055
G1 X128.318 Y62.186 E0.01322
G1 X128.318 Y57.191 E0.12756
G1 X127.800 Y57.700 E0.01854
G1 X127.800 Y62.186 E0.11456
G1 X127.282 Y62.186 E0.01322
G1 X127.282 Y58.208 E0.10157
G1 X126.764 Y58.717 E0.01854
G1 X126.764 Y62.186 E0.08858
G1 X126.247 Y62.186 E0.01322
G1 X126.247 Y59.226 E0.07558
G1 X126.045 Y59.424 E0.00722
G1 X125.729 Y59.336 E0.00838
G1 X125.729 Y62.186 E0.07278
G1 X125.211 Y62.186 E0.01322
G1 X125.211 Y58.060 E0.10537
M204 S1250
G1 E-2.70000 F4200.000
G1 Z0.400 F9000.000
G1 X125.445 Y53.598
G1 Z0.200
G1 E2.70000 F2400.000
M204 S800
;TYPE:Support material
;WIDTH:0.42
G1 F1200.000
G1 X125.445 Y57.414 E0.11965
G1 X125.739 Y57.496 E0.00956
G1 X125.735 Y57.786 E0.00909
G1 X125.445 Y57.859 E0.00938
G1 X125.445 Y58.152 E0.00919
G1 X125.649 Y58.953 E0.02589
G1 X125.945 Y59.036 E0.00965
G1 X126.200 Y58.785 E0.01120
G1 X126.200 Y53.094 E0.17844
G1 X126.954 Y52.353 E0.03316
G1 X126.954 Y58.044 E0.17844
G1 X127.708 Y57.303 E0.03316
G1 X127.708 Y57.216 E0.00272
G1 X127.420 Y57.216 E0.00904
G1 X127.420 Y55.567 E0.05169
G1 X127.708 Y55.567 E0.00904
G1 X127.708 Y51.612 E0.12403
G1 X128.228 Y51.101 E0.02285
G1 X128.462 Y50.713 E0.01420
G1 X128.462 Y52.808 E0.06568
G1 X129.068 Y52.808 E0.01900
G1 X129.068 Y55.966 E0.09901
G1 X129.216 Y55.820 E0.00651
G1 X129.216 Y48.363 E0.23383
G1 X129.371 Y48.393 E0.00495
G1 X129.503 Y48.148 E0.00873
G1 X129.299 Y47.937 E0.00920
G1 X129.560 Y47.975 E0.00826
G1 X129.801 Y48.408 E0.01553
G1 X129.970 Y48.805 E0.01355
G1 X129.970 Y55.079 E0.19672
G1 X130.725 Y54.338 E0.03316
G1 X130.725 Y50.581 E0.11780
G1 X130.874 Y50.935 E0.01204
G1 X131.479 Y52.767 E0.06049
G1 X131.479 Y53.621 E0.02678
M204 S1250
G1 E-2.70000 F4200.000
G1 Z0.400 F9000.000
G1 X134.014 Y55.376
G1 Z0.200
G1 E2.70000 F2400.000
M204 S800
;TYPE:Support material interface
;WIDTH:0.35
G1 F1200.000
G1 X134.014 Y50.597 E0.12202
G1 X133.496 Y50.597 E0.01322
G1 X133.496 Y55.233 E0.11837
M73 P2 R67
G1 X132.978 Y55.233 E0.01322
G1 X132.978 Y50.597 E0.11837
G1 X132.460 Y50.597 E0.01322
G1 X132.460 Y55.233 E0.11837
G1 X131.943 Y55.233 E0.01322
G1 X131.943 Y50.597 E0.11837
G1 X131.721 Y50.597 E0.00567
G1 X131.721 Y45.962 E0.11836
G1 X131.425 Y45.962 E0.00755
G1 X131.425 Y51.494 E0.14126
G1 X131.193 Y50.795 E0.01880
G1 X130.907 Y50.121 E0.01869
G1 X130.907 Y45.962 E0.10621
G1 X130.389 Y45.962 E0.01322
G1 X130.389 Y48.902 E0.07508
G1 X130.123 Y48.276 E0.01737
G1 X129.871 Y47.819 E0.01332
G1 X129.871 Y45.962 E0.04743
G1 X129.353 Y45.962 E0.01322
G1 X129.353 Y47.594 E0.04168
G1 X129.178 Y47.569 E0.00452
G1 X128.836 Y47.906 E0.01228
G1 X128.836 Y45.962 E0.04965
G1 X128.318 Y45.962 E0.01322
G1 X128.318 Y48.402 E0.06231
G1 X127.800 Y48.911 E0.01854
G1 X127.800 Y45.962 E0.07531
G1 X127.282 Y45.962 E0.01322
G1 X127.282 Y49.623 E0.09349
M204 S1250
G1 X128.462 Y49.150 F9000.000
M204 S800
;TYPE:Support material
;WIDTH:0.42
G1 F1200.000
G1 X128.462 Y48.510 E0.02007
M204 S1250
G1 E-2.70000 F4200.000
G1 Z0.400 F9000.000
G1 X122.429 Y49.775
G1 Z0.200
G1 E2.70000 F2400.000
M204 S800
G1 F1200.000
G1 X122.429 Y67.474 E0.55495
G1 X123.183 Y67.474 E0.02365
G1 X123.183 Y49.945 E0.54963
G1 X123.937 Y49.945 E0.02365
G1 X123.937 Y67.644 E0.55495
M204 S1250
G1 E-2.70000 F4200.000
G1 Z0.400 F9000.000
G1 X133.741 Y33.550
G1 Z0.200
G1 E2.70000 F2400.000
M204 S800
G1 F1200.000
G1 X133.741 Y50.250 E0.52359
G1 X132.987 Y50.250 E0.02365
G1 X132.987 Y36.038 E0.44560
G1 X132.233 Y36.038 E0.02365
G1 X132.233 Y50.250 E0.44560
G1 X132.068 Y50.250 E0.00517
G1 X132.068 Y45.614 E0.14535
G1 X131.479 Y45.614 E0.01848
G1 X131.479 Y36.038 E0.30025
G1 X131.068 Y36.038 E0.01288
G1 X131.068 Y38.356 E0.07267
G1 X130.725 Y38.356 E0.01077
G1 X130.725 Y45.614 E0.22758
G1 X129.970 Y45.614 E0.02365
G1 X129.970 Y38.356 E0.22758
G1 X129.216 Y38.356 E0.02365
G1 X129.216 Y45.614 E0.22758
G1 X128.462 Y45.614 E0.02365
G1 X128.462 Y40.674 E0.15491
G1 X127.708 Y40.674 E0.02365
G1 X127.708 Y45.614 E0.15491
G1 X126.954 Y45.614 E0.02365
G1 X126.954 Y40.674 E0.15491
G1 X126.432 Y40.674 E0.01635
G1 X126.432 Y42.991 E0.07267
G1 X126.200 Y42.991 E0.00730
G1 X126.200 Y50.631 E0.23954
G1 X125.744 Y51.225 E0.02348
G1 X125.445 Y51.730 E0.01838
G1 X125.445 Y42.991 E0.27398
G1 X124.691 Y42.991 E0.02365
G1 X124.691 Y52.568 E0.30026
G1 X124.420 Y52.568 E0.00852
G1 X124.420 Y60.027 E0.23390
G1 X124.420 Y62.534 E0.07859
G1 X124.691 Y62.534 E0.00852
G1 X124.691 Y97.606 E1.09966
G1 X125.420 Y97.606 E0.02283
G1 X125.420 Y95.288 E0.07267
G1 X125.445 Y95.288 E0.00081
G1 X125.445 Y62.534 E1.02699
G1 X126.200 Y62.534 E0.02365
G1 X126.200 Y95.288 E1.02699
G1 X126.954 Y95.288 E0.02365
G1 X126.954 Y62.534 E1.02699
G1 X127.708 Y62.534 E0.02365
G1 X127.708 Y95.288 E1.02699
G1 X127.737 Y95.288 E0.00092
G1 X127.737 Y92.970 E0.07267
G1 X128.462 Y92.970 E0.02272
G1 X128.462 Y62.534 E0.95431
G1 X129.216 Y62.534 E0.02365
G1 X129.216 Y92.970 E0.95431
G1 X129.970 Y92.970 E0.02365
G1 X129.970 Y60.216 E1.02699
G1 X130.725 Y60.216 E0.02365
G1 X130.725 Y90.652 E0.95431
G1 X131.479 Y90.652 E0.02365
G1 X131.479 Y60.216 E0.95431
G1 X132.068 Y60.216 E0.01848
G1 X132.068 Y55.580 E0.14534
G1 X132.233 Y55.580 E0.00517
G1 X132.233 Y90.652 E1.09966
G1 X132.373 Y90.652 E0.00439
G1 X132.373 Y88.335 E0.07267
G1 X132.987 Y88.335 E0.01925
G1 X132.987 Y55.580 E1.02699
G1 X133.741 Y55.580 E0.02365
G1 X133.741 Y88.335 E1.02699
G1 X134.495 Y88.335 E0.02365
G1 X134.495 Y33.720 E1.71240
M73 P2 R66
G1 X135.250 Y33.720 E0.02365
G1 X135.250 Y86.017 E1.63973
M73 P3 R66
G1 X136.004 Y86.017 E0.02365
G1 X136.004 Y31.402 E1.71240
G1 X136.758 Y31.402 E0.02365
G1 X136.758 Y86.187 E1.71772
M204 S1250
G1 E-2.70000 F4200.000
G1 Z0.400 F9000.000
G1 X123.937 Y97.776
G1 Z0.200
G1 E2.70000 F2400.000
M204 S800
G1 F1200.000
G1 X123.937 Y73.123 E0.77297
G1 X123.183 Y73.123 E0.02365
G1 X123.183 Y97.606 E0.76765
G1 X123.102 Y97.606 E0.00255
G1 X123.102 Y99.924 E0.07267
G1 X122.429 Y99.924 E0.02110
G1 X122.429 Y73.123 E0.84032
G1 X121.797 Y73.123 E0.01982
G1 X121.797 Y75.441 E0.07267
G1 X121.675 Y75.441 E0.00383
G1 X121.675 Y99.924 E0.76765
G1 X120.921 Y99.924 E0.02365
G1 X120.921 Y75.441 E0.76765
G1 X120.166 Y75.441 E0.02365
G1 X120.166 Y102.242 E0.84032
G1 X119.412 Y102.242 E0.02365
G1 X119.412 Y77.758 E0.76765
G1 X118.658 Y77.758 E0.02365
G1 X118.658 Y102.242 E0.76765
G1 X118.466 Y102.242 E0.00602
G1 X118.466 Y104.559 E0.07267
G1 X117.904 Y104.559 E0.01763
G1 X117.904 Y77.758 E0.84032
G1 X117.161 Y77.758 E0.02329
G1 X117.150 Y104.559 E0.84032
G1 X116.396 Y104.559 E0.02365
G1 X116.396 Y80.076 E0.76765
G1 X115.641 Y80.076 E0.02365
G1 X115.641 Y106.877 E0.84032
G1 X114.887 Y106.877 E0.02365
G1 X114.887 Y80.076 E0.84032
G1 X114.843 Y80.076 E0.00137
G1 X114.843 Y82.394 E0.07267
G1 X114.133 Y82.394 E0.02227
G1 X114.133 Y106.877 E0.76765
G1 X113.831 Y106.877 E0.00949
G1 X113.831 Y109.195 E0.07267
G1 X113.379 Y109.195 E0.01416
G1 X113.379 Y82.394 E0.84032
G1 X112.625 Y82.394 E0.02365
G1 X112.625 Y109.195 E0.84032
G1 X111.871 Y109.195 E0.02365
G1 X111.871 Y84.712 E0.76765
G1 X111.116 Y84.712 E0.02365
G1 X111.116 Y111.513 E0.84032
G1 X110.362 Y111.513 E0.02365
G1 X110.362 Y84.712 E0.84032
G1 X110.208 Y84.712 E0.00484
G1 X110.208 Y87.030 E0.07267
G1 X109.608 Y87.030 E0.01880
G1 X109.608 Y111.513 E0.76765
G1 X109.195 Y111.513 E0.01296
G1 X109.195 Y113.831 E0.07267
G1 X108.854 Y113.831 E0.01069
G1 X108.854 Y87.030 E0.84032
G1 X108.100 Y87.030 E0.02365
G1 X108.100 Y113.831 E0.84032
G1 X107.346 Y113.831 E0.02365
G1 X107.346 Y89.348 E0.76765
G1 X106.591 Y89.348 E0.02365
G1 X106.591 Y116.148 E0.84032
G1 X105.837 Y116.148 E0.02365
G1 X105.837 Y89.348 E0.84032
M73 P4 R66
G1 X105.572 Y89.348 E0.00831
G1 X105.572 Y91.665 E0.07267
G1 X105.083 Y91.665 E0.01533
G1 X105.083 Y116.148 E0.76765
G1 X104.559 Y116.148 E0.01643
G1 X104.559 Y118.466 E0.07267
G1 X104.329 Y118.466 E0.00722
G1 X104.329 Y91.665 E0.84032
G1 X103.575 Y91.665 E0.02365
G1 X103.575 Y118.466 E0.84032
G1 X102.821 Y118.466 E0.02365
G1 X102.821 Y93.983 E0.76765
G1 X102.067 Y93.983 E0.02365
G1 X102.067 Y120.784 E0.84032
G1 X101.312 Y120.784 E0.02365
G1 X101.312 Y93.983 E0.84032
G1 X100.937 Y93.983 E0.01178
G1 X100.937 Y96.301 E0.07267
G1 X100.558 Y96.301 E0.01186
G1 X100.558 Y120.784 E0.76765
G1 X99.924 Y120.784 E0.01989
G1 X99.924 Y123.102 E0.07267
G1 X99.804 Y123.102 E0.00375
G1 X99.804 Y96.301 E0.84032
G1 X99.050 Y96.301 E0.02365
G1 X99.050 Y123.102 E0.84032
G1 X98.296 Y123.102 E0.02365
G1 X98.296 Y98.619 E0.76765
G1 X97.542 Y98.619 E0.02365
G1 X97.542 Y125.420 E0.84032
M73 P4 R65
G1 X96.787 Y125.420 E0.02365
G1 X96.787 Y98.619 E0.84032
G1 X96.301 Y98.619 E0.01525
G1 X96.301 Y100.937 E0.07267
G1 X96.033 Y100.937 E0.00839
G1 X96.033 Y125.420 E0.76765
G1 X95.288 Y125.420 E0.02336
G1 X95.288 Y127.737 E0.07267
G1 X95.279 Y100.937 E0.84032
G1 X94.525 Y100.937 E0.02365
G1 X94.525 Y127.737 E0.84032
G1 X93.771 Y127.737 E0.02365
G1 X93.771 Y103.254 E0.76765
G1 X93.017 Y103.254 E0.02365
G1 X93.017 Y127.737 E0.76765
G1 X92.970 Y127.737 E0.00145
G1 X92.970 Y130.055 E0.07267
G1 X92.262 Y130.055 E0.02219
G1 X92.262 Y103.254 E0.84032
G1 X91.665 Y103.254 E0.01872
G1 X91.665 Y105.572 E0.07267
G1 X91.508 Y105.572 E0.00492
G1 X91.508 Y130.055 E0.76765
G1 X90.754 Y130.055 E0.02365
G1 X90.754 Y105.572 E0.76765
G1 X90.000 Y105.572 E0.02365
G1 X90.000 Y132.373 E0.84032
G1 X89.246 Y132.373 E0.02365
G1 X89.246 Y107.890 E0.76765
G1 X88.492 Y107.890 E0.02365
G1 X88.492 Y132.373 E0.76765
G1 X88.335 Y132.373 E0.00492
G1 X88.335 Y134.691 E0.07267
G1 X87.738 Y134.691 E0.01872
G1 X87.738 Y107.890 E0.84032
G1 X87.030 Y107.890 E0.02219
G1 X87.030 Y110.208 E0.07267
G1 X86.983 Y110.208 E0.00145
G1 X86.983 Y134.691 E0.76765
G1 X86.229 Y134.691 E0.02365
G1 X86.229 Y110.208 E0.76765
G1 X85.475 Y110.208 E0.02365
G1 X85.475 Y137.009 E0.84032
G1 X84.721 Y137.009 E0.02365
G1 X84.712 Y110.208 E0.84032
G1 X84.712 Y112.526 E0.07267
G1 X83.967 Y112.526 E0.02336
G1 X83.967 Y137.009 E0.76765
G1 X83.699 Y137.009 E0.00839
G1 X83.699 Y139.326 E0.07267
G1 X83.213 Y139.326 E0.01525
G1 X83.213 Y112.526 E0.84032
M73 P5 R65
G1 X82.458 Y112.526 E0.02365
G1 X82.458 Y139.326 E0.84032
G1 X81.704 Y139.326 E0.02365
G1 X81.704 Y114.843 E0.76765
G1 X80.950 Y114.843 E0.02365
G1 X80.950 Y139.326 E0.76765
G1 X80.196 Y139.326 E0.02365
G1 X80.196 Y114.843 E0.76765
G1 X80.076 Y114.843 E0.00375
G1 X80.076 Y117.161 E0.07267
G1 X79.442 Y117.161 E0.01989
G1 X79.442 Y139.326 E0.69498
G1 X79.063 Y139.326 E0.01186
G1 X79.063 Y141.644 E0.07267
G1 X78.688 Y141.644 E0.01178
G1 X78.688 Y117.161 E0.76765
G1 X77.933 Y117.161 E0.02365
G1 X77.933 Y141.644 E0.76765
G1 X77.179 Y141.644 E0.02365
G1 X77.179 Y119.479 E0.69498
G1 X76.425 Y119.479 E0.02365
G1 X76.425 Y141.644 E0.69498
G1 X75.671 Y141.644 E0.02365
G1 X75.671 Y119.479 E0.69498
G1 X75.441 Y119.479 E0.00722
G1 X75.441 Y121.797 E0.07267
